!! 00000] TT[00
!! NN
!!!OTL: Chun gong yao
!!!ARE: Asia, China,ÿNingxia, Longde
!! Ethnic Group: Han
!! I, 173
!!!SCT: C0508
!!!YEM: Copyright 1995, estate of Helmut Schaffrath.
**kern
*ICvox
*Ivox
*M2/4
*k[b-]
*F:
{8cc
16a
16cc
8dd
8ff
=1
4cc
8a
16g
16a
=2
8cc
16a
16cc
8dd
8ff
=3
2cc}
=4
{8cc
4b-
8cc
=5
8.ff
16dd
8cc
8g
=6
8b-
8g
8b-
16a
16g
=7
8f
8d
4f}
=8
{16g
16a
16g
16f
4g
=9
4cc
8dd
8cc
=10
8g
8a
8g
8f}
=11
{8f
4c
8f
=12
8.g
16a
8f
8d
=13
2c}
=14
{16g
16a
16g
16f
4g
=15
4cc
8dd
8cc
=16
8g
8a
8g
8f}
=17
{8f
4c
8f
=18
8.g
16a
8f
8d
=19
2c}
==
!!!AGN: Xiaodiao, Shidiao, Molihua diao. Biaoda aiqing
!! neues Volkslied. Stimmt man besonders vor Europaern an.
!!    Typisch fuer diese Provinz.
!!!ONB: ESAC (Essen Associative Code) Database: CHINA
!!!AMT: simple duple
!!!AIN: vox
!!!EED: Helmut Schaffrath
!!!EEV: 1.0
*-
